apps/mobile/assets/icons/phosphor/eye.svg

<svg
  height="32"
  viewBox="0 0 256 256"
  width="32"
  xmlns="http://www.w3.org/2000/svg"
>
  <path
    d="m247.31 124.76c-.35-.79-8.82-19.58-27.65-38.41-25.09-25.09-56.78-38.35-91.66-38.35s-66.57 13.26-91.66 38.35c-18.83 18.83-27.34 37.65-27.65 38.41a8 8 0 0 0 0 6.5c.35.79 8.82 19.57 27.65 38.4 25.09 25.08 56.78 38.34 91.66 38.34s66.57-13.26 91.66-38.34c18.83-18.83 27.3-37.61 27.65-38.4a8 8 0 0 0 0-6.5zm-119.31 67.24c-30.78 0-57.67-11.19-79.93-33.25a133.47 133.47 0 0 1 -23.07-30.75 133.33 133.33 0 0 1 23.07-30.75c22.26-22.06 49.15-33.25 79.93-33.25s57.67 11.19 79.93 33.25a133.46 133.46 0 0 1 23.12 30.75c-7.21 13.46-38.62 64-103.05 64zm0-112a48 48 0 1 0 48 48 48.05 48.05 0 0 0 -48-48zm0 80a32 32 0 1 1 32-32 32 32 0 0 1 -32 32z"
  />
</svg>

<svg xmlns="http://www.w3.org/2000/svg" width="32" height="32" fill="#000000" viewBox="0 0 256 256"><path d="M247.31,124.76c-.35-.79-8.82-19.58-27.65-38.41C194.57,61.26,162.88,48,128,48S61.43,61.26,36.34,86.35C17.51,105.18,9,124,8.69,124.76a8,8,0,0,0,0,6.5c.35.79,8.82,19.57,27.65,38.4C61.43,194.74,93.12,208,128,208s66.57-13.26,91.66-38.34c18.83-18.83,27.3-37.61,27.65-38.4A8,8,0,0,0,247.31,124.76ZM128,192c-30.78,0-57.67-11.19-79.93-33.25A133.47,133.47,0,0,1,25,128,133.33,133.33,0,0,1,48.07,97.25C70.33,75.19,97.22,64,128,64s57.67,11.19,79.93,33.25A133.46,133.46,0,0,1,231.05,128C223.84,141.46,192.43,192,128,192Zm0-112a48,48,0,1,0,48,48A48.05,48.05,0,0,0,128,80Zm0,80a32,32,0,1,1,32-32A32,32,0,0,1,128,160Z"></path></svg>
